X: 1691
T: Ballincollig in the Morning   #1
R: hornpipe, reel
%S: s:2 b:16(8+8)
B: O'Neill's 1850 #1691
O: F.O'Neill
M: 2/4
L: 1/16
K: G
(Bc) \
| dBAB G2AB | cBAG F2(Bc) | dBge dBGA | B2A2 A2(Bc) |\
| dBAB G2AB | cBAG F2(Bc) | dBge dBAB | G2GG G2 :|
|: (Bc) \
| dBge dBGB   | dBge d2(Bc) | dBge dBGA | B2A2 A2(ge) |\
| dcBA F2(Bc) | cBAG F2(Bc) | dBge dBAB | G2GG G2 :|
